build/img/success-modal-img.svg

<svg width="244" height="241" viewBox="0 0 244 241" fill="none" xmlns="http://www.w3.org/2000/svg">
<path d="M54.7466 188.885C54.7466 188.885 95.8281 198.962 146.806 186.565C197.783 174.168 235.479 144.932 235.479 144.932" stroke="#A19B9B" stroke-width="5" stroke-linecap="round" stroke-linejoin="round"/>
<path d="M74.3625 212.416C74.3625 212.416 108.504 220.579 152.477 209.885C196.45 199.192 224.973 175.789 224.973 175.789" stroke="#A19B9B" stroke-width="4" stroke-linecap="round" stroke-linejoin="round"/>
<path d="M113.307 228.673C113.307 228.673 124.668 236.202 156.967 228.347C189.266 220.493 195.756 212.225 195.756 212.225" stroke="#A19B9B" stroke-width="3" stroke-linecap="round" stroke-linejoin="round"/>
<path d="M40.029 82.7791L39.6922 89.0572" stroke="#A19B9B" stroke-linecap="round" stroke-linejoin="round"/>
<path d="M43.7746 85.8023L43.4378 92.0804" stroke="#A19B9B" stroke-linecap="round" stroke-linejoin="round"/>
<path d="M46.9523 87.2754L46.8997 94.3287" stroke="#A19B9B" stroke-linecap="round" stroke-linejoin="round"/>
<path d="M50.0264 89.6658L49.8703 97.6363" stroke="#A19B9B" stroke-linecap="round" stroke-linejoin="round"/>
<path d="M52.9586 91.6684L52.35 102.003" stroke="#A19B9B" stroke-linecap="round" stroke-linejoin="round"/>
<path d="M56.3169 94.8338L55.3978 107.92" stroke="#A19B9B" stroke-linecap="round" stroke-linejoin="round"/>
<path d="M59.5331 97.6117L58.6526 112.002" stroke="#A19B9B" stroke-linecap="round" stroke-linejoin="round"/>
<path d="M79.3317 131.24L77.2358 153.11" stroke="#A19B9B" stroke-linecap="round" stroke-linejoin="round"/>
<path d="M62.5037 100.919L61.1322 116.369" stroke="#A19B9B" stroke-linecap="round" stroke-linejoin="round"/>
<path d="M65.6165 104.614L64.6712 121.227" stroke="#A19B9B" stroke-linecap="round" stroke-linejoin="round"/>
<path d="M69.4008 108.942L68.003 127.919" stroke="#A19B9B" stroke-linecap="round" stroke-linejoin="round"/>
<path d="M72.4487 114.859L70.7405 136.587" stroke="#A19B9B" stroke-linecap="round" stroke-linejoin="round"/>
<path d="M76.0261 121.022L74.046 146.806" stroke="#A19B9B" stroke-linecap="round" stroke-linejoin="round"/>
<path d="M63.8359 181.322C71.51 175.871 79.2368 163.368 79.2368 163.368" stroke="#A19B9B" stroke-width="2" stroke-linecap="round" stroke-linejoin="round"/>
<path d="M78.3584 164.569C78.3584 164.569 77.1553 176.88 69.055 181.167" stroke="#A19B9B" stroke-width="2" stroke-linecap="round" stroke-linejoin="round"/>
<path d="M78.5651 162.735C78.5651 162.735 80.9921 174.155 77.5163 180.264" stroke="#A19B9B" stroke-width="2" stroke-linecap="round" stroke-linejoin="round"/>
<path d="M79.1719 165.59C79.1719 165.59 84.054 171.713 83.1491 176.441" stroke="#A19B9B" stroke-width="2" stroke-linecap="round" stroke-linejoin="round"/>
<path d="M187.056 126.489C194.73 121.039 202.457 108.535 202.457 108.535" stroke="#A19B9B" stroke-width="2" stroke-linecap="round" stroke-linejoin="round"/>
<path d="M201.579 109.736C201.579 109.736 200.375 122.047 192.275 126.335" stroke="#A19B9B" stroke-width="2" stroke-linecap="round" stroke-linejoin="round"/>
<path d="M201.786 107.902C201.786 107.902 204.213 119.322 200.737 125.432" stroke="#A19B9B" stroke-width="2" stroke-linecap="round" stroke-linejoin="round"/>
<path d="M202.392 110.757C202.392 110.757 207.275 116.881 206.37 121.609" stroke="#A19B9B" stroke-width="2" stroke-linecap="round" stroke-linejoin="round"/>
<path d="M184.037 4.30674C176.304 9.67219 168.44 22.0899 168.44 22.0899" stroke="#A19B9B" stroke-width="2" stroke-linecap="round" stroke-linejoin="round"/>
<path d="M169.332 20.8984C169.332 20.8984 170.67 8.60167 178.817 4.40353" stroke="#A19B9B" stroke-width="2" stroke-linecap="round" stroke-linejoin="round"/>
<path d="M169.104 22.7304C169.104 22.7304 166.803 11.2844 170.346 5.21336" stroke="#A19B9B" stroke-width="2" stroke-linecap="round" stroke-linejoin="round"/>
<path d="M168.529 19.8689C168.529 19.8689 163.715 13.6916 164.672 8.97398" stroke="#A19B9B" stroke-width="2" stroke-linecap="round" stroke-linejoin="round"/>
<path d="M2.10436 72.7445C11.4736 71.8416 25.4996 76.2365 25.4996 76.2365" stroke="#A19B9B" stroke-width="2" stroke-linecap="round" stroke-linejoin="round"/>
<path d="M24.0491 75.9035C24.0491 75.9035 15.0812 67.3841 6.15086 69.445" stroke="#A19B9B" stroke-width="2" stroke-linecap="round" stroke-linejoin="round"/>
<path d="M25.4063 77.1546C25.4063 77.1546 19.7658 66.9326 13.1388 64.5889" stroke="#A19B9B" stroke-width="2" stroke-linecap="round" stroke-linejoin="round"/>
<path d="M23.9963 74.5994C23.9963 74.5994 23.6787 66.774 19.8998 63.7921" stroke="#A19B9B" stroke-width="2" stroke-linecap="round" stroke-linejoin="round"/>
<path d="M64.1315 122.263C54.9595 104.387 41.8684 85.9785 25.402 76.3293C29.5103 75.6164 34.239 74.8743 39.4244 74.0606C55.9126 71.4731 77.0185 68.161 97.4796 62.756C112.614 58.758 127.584 53.5779 140.368 46.6124C152.268 40.1288 162.386 32.0372 168.935 21.8037C176.93 30.5634 188.052 46.2343 195.704 62.6142C199.821 71.4263 202.886 80.3423 203.957 88.4253C204.992 96.2315 204.144 103.046 200.836 108.276C183.899 113.393 155.612 122.491 130.237 133.151C117.379 138.553 105.209 144.38 95.6253 150.323C90.833 153.294 86.6448 156.32 83.3286 159.366C81.8142 160.757 80.46 162.172 79.3073 163.608C78.6283 159.932 77.4507 155.398 75.8353 150.371C73.1609 142.05 69.2227 132.185 64.1315 122.263Z" stroke="#A19B9B" stroke-width="4"/>
<mask id="path-34-inside-1" fill="white">
<path d="M111.28 116.454C125.201 117.653 166.083 123.5 166.083 88.4553C165.683 99.6553 124.853 112.969 111.28 116.454Z"/>
</mask>
<path d="M111.28 116.454L110.783 114.517C109.838 114.759 109.206 115.647 109.287 116.619C109.368 117.591 110.137 118.363 111.109 118.447L111.28 116.454ZM166.083 88.4553L168.083 88.4553L164.084 88.3839L166.083 88.4553ZM111.109 118.447C117.924 119.034 132.009 120.852 144.353 117.994C150.566 116.556 156.529 113.897 160.943 109.144C165.392 104.353 168.083 97.6328 168.083 88.4553L164.083 88.4553C164.083 96.8001 161.663 102.491 158.012 106.422C154.326 110.392 149.198 112.767 143.451 114.098C131.874 116.778 118.557 115.073 111.452 114.461L111.109 118.447ZM111.778 118.391C118.644 116.628 132.346 112.397 144.415 107.184C150.44 104.581 156.149 101.695 160.409 98.7016C162.538 97.2061 164.378 95.6339 165.717 93.998C167.047 92.3737 168.01 90.5305 168.081 88.5267L164.084 88.3839C164.055 89.1801 163.655 90.2029 162.622 91.4641C161.599 92.7136 160.077 94.0464 158.11 95.4285C154.178 98.1908 148.757 100.951 142.828 103.512C130.989 108.627 117.49 112.795 110.783 114.517L111.778 118.391Z" fill="#A19B9B" mask="url(#path-34-inside-1)"/>
<path d="M117.449 81.5231C118.36 82.8619 118.4 83.559 118.288 83.9258C118.168 84.3196 117.756 84.75 116.745 85.2679C116.046 85.6259 115.221 85.9509 114.273 86.3247C113.87 86.4835 113.445 86.6512 112.998 86.8339C111.543 87.4281 109.939 88.1519 108.437 89.1732C106.935 90.1958 105.71 91.3974 104.676 92.4983C104.327 92.871 104.007 93.2222 103.709 93.55C103.094 94.2258 102.569 94.8027 102.054 95.2657C101.282 95.9589 100.832 96.1071 100.512 96.0638C100.169 96.0173 99.5553 95.6958 98.6261 94.3302C95.0895 89.1326 96.4361 82.052 101.634 78.5154C106.831 74.9789 113.912 76.3254 117.449 81.5231Z" stroke="#A19B9B" stroke-width="2"/>
<path d="M159.799 69.0089C160.047 70.5726 159.849 71.4915 159.495 72.0653C159.146 72.6322 158.533 73.0454 157.536 73.3504C156.526 73.6589 155.258 73.8167 153.746 73.9632C153.47 73.9899 153.188 74.0161 152.899 74.0429C151.634 74.1604 150.25 74.2889 148.843 74.5124C147.418 74.7388 146.071 75.0464 144.858 75.3232C144.6 75.3822 144.348 75.4398 144.102 75.4949C142.671 75.8161 141.497 76.0449 140.524 76.0536C139.573 76.062 138.945 75.8584 138.489 75.4358C138.012 74.9932 137.566 74.1643 137.314 72.5799C136.328 66.3709 140.562 60.5382 146.771 59.5521C152.98 58.566 158.812 62.8 159.799 69.0089Z" stroke="#A19B9B" stroke-width="2"/>
<circle cx="107.648" cy="81.648" r="2.06386" transform="rotate(-20.1282 107.648 81.648)" fill="#A19B9B"/>
<circle cx="150.648" cy="64.648" r="2.06386" transform="rotate(-20.1282 150.648 64.648)" fill="#A19B9B"/>
<path d="M26.4011 76.7832C49.4501 84.8947 92.1102 113.808 78.3581 164.569" stroke="#A19B9B" stroke-width="2"/>
</svg>

<svg width="244" height="241" fill="none" xmlns="http://www.w3.org/2000/svg"><path d="M54.747 188.885s41.081 10.077 92.059-2.32c50.977-12.397 88.673-41.633 88.673-41.633" stroke="#A19B9B" stroke-width="5" stroke-linecap="round" stroke-linejoin="round"/><path d="M74.362 212.416s34.142 8.163 78.115-2.531c43.973-10.693 72.496-34.096 72.496-34.096" stroke="#A19B9B" stroke-width="4" stroke-linecap="round" stroke-linejoin="round"/><path d="M113.307 228.673s11.361 7.529 43.66-.326c32.299-7.854 38.789-16.122 38.789-16.122" stroke="#A19B9B" stroke-width="3" stroke-linecap="round" stroke-linejoin="round"/><path d="M40.029 82.78l-.337 6.277m4.083-3.255l-.337 6.278m3.514-4.805L46.9 94.33m3.126-4.664l-.156 7.97m3.089-5.968l-.609 10.335m3.967-7.169l-.92 13.086m4.136-10.308l-.88 14.39m20.679 19.238l-2.096 21.87m-14.732-52.191l-1.372 15.45m4.485-11.755l-.946 16.613m4.729-12.285l-1.397 18.977m4.446-13.06l-1.709 21.728m5.286-15.565l-1.98 25.784" stroke="#A19B9B" stroke-linecap="round" stroke-linejoin="round"/><path d="M63.836 181.322c7.674-5.451 15.4-17.954 15.4-17.954m-.878 1.201s-1.203 12.311-9.303 16.598m9.51-18.432s2.427 11.42-1.049 17.529m1.656-14.674s4.882 6.123 3.977 10.851m103.907-49.952c7.674-5.45 15.401-17.954 15.401-17.954m-.878 1.201s-1.204 12.311-9.304 16.599m9.511-18.433s2.427 11.42-1.049 17.53m1.655-14.675s4.883 6.124 3.978 10.852M184.037 4.307C176.304 9.672 168.44 22.09 168.44 22.09m.892-1.192s1.338-12.296 9.485-16.494m-9.713 18.326s-2.301-11.446 1.242-17.517m-1.817 14.656s-4.814-6.177-3.857-10.895M2.104 72.745c9.37-.903 23.396 3.492 23.396 3.492m-1.45-.334s-8.969-8.519-17.9-6.458m19.256 7.71s-5.64-10.222-12.267-12.566M23.996 74.6s-.317-7.826-4.096-10.808" stroke="#A19B9B" stroke-width="2" stroke-linecap="round" stroke-linejoin="round"/><path d="M64.132 122.263c-9.173-17.876-22.264-36.285-38.73-45.934 4.108-.713 8.837-1.455 14.022-2.268 16.489-2.588 37.595-5.9 58.056-11.305 15.134-3.998 30.104-9.178 42.888-16.144 11.9-6.483 22.018-14.575 28.567-24.808 7.995 8.76 19.117 24.43 26.769 40.81 4.117 8.812 7.182 17.728 8.253 25.811 1.035 7.806.187 14.621-3.121 19.851-16.937 5.117-45.224 14.215-70.599 24.875-12.858 5.402-25.028 11.229-34.612 17.172-4.792 2.971-8.98 5.997-12.296 9.043-1.515 1.391-2.869 2.806-4.022 4.242-.679-3.676-1.856-8.21-3.472-13.237-2.674-8.321-6.612-18.186-11.703-28.108z" stroke="#A19B9B" stroke-width="4"/><mask id="a" fill="#fff"><path d="M111.28 116.454c13.921 1.199 54.803 7.046 54.803-27.999-.4 11.2-41.23 24.514-54.803 27.999z"/></mask><path d="M111.28 116.454l-.497-1.937a2.001 2.001 0 0 0 .326 3.93l.171-1.993zm54.803-27.999h2l-3.999-.071 1.999.071zm-54.974 29.992c6.815.587 20.9 2.405 33.244-.453 6.213-1.438 12.176-4.097 16.59-8.85 4.449-4.791 7.14-11.511 7.14-20.689h-4c0 8.345-2.42 14.036-6.071 17.967-3.686 3.97-8.814 6.345-14.561 7.676-11.577 2.68-24.894.975-31.999.363l-.343 3.986zm.669-.056c6.866-1.763 20.568-5.994 32.637-11.207 6.025-2.603 11.734-5.489 15.994-8.482 2.129-1.496 3.969-3.068 5.308-4.704 1.33-1.624 2.293-3.468 2.364-5.471l-3.997-.143c-.029.796-.429 1.819-1.462 3.08-1.023 1.25-2.545 2.582-4.512 3.965-3.932 2.762-9.353 5.522-15.282 8.083-11.839 5.115-25.338 9.283-32.045 11.005l.995 3.874z" fill="#A19B9B" mask="url(#a)"/><path d="M117.449 81.523c.911 1.339.951 2.036.839 2.403-.12.394-.532.824-1.543 1.342-.699.358-1.524.683-2.472 1.057-.403.159-.828.326-1.275.509-1.455.594-3.059 1.318-4.561 2.34-1.502 1.022-2.727 2.223-3.761 3.324a95.01 95.01 0 0 0-.967 1.052c-.615.676-1.14 1.253-1.655 1.716-.772.693-1.222.841-1.542.798-.343-.047-.957-.368-1.886-1.734-3.537-5.197-2.19-12.278 3.008-15.815 5.197-3.536 12.278-2.19 15.815 3.008zm42.35-12.514c.248 1.564.05 2.483-.304 3.056-.349.567-.962.98-1.959 1.285-1.01.309-2.278.467-3.79.613l-.847.08c-1.265.117-2.649.246-4.056.47-1.425.226-2.772.533-3.985.81-.258.06-.51.117-.756.172-1.431.321-2.605.55-3.578.559-.951.008-1.579-.196-2.035-.618-.477-.443-.923-1.272-1.175-2.856-.986-6.21 3.248-12.042 9.457-13.028 6.209-.986 12.041 3.248 13.028 9.457z" stroke="#A19B9B" stroke-width="2"/><circle cx="107.648" cy="81.648" r="2.064" transform="rotate(-20.128 107.648 81.648)" fill="#A19B9B"/><circle cx="150.648" cy="64.648" r="2.064" transform="rotate(-20.128 150.648 64.648)" fill="#A19B9B"/><path d="M26.401 76.783c23.05 8.112 65.71 37.025 51.957 87.786" stroke="#A19B9B" stroke-width="2"/></svg>
